svg/plikshare-light.svg

<svg xmlns="http://www.w3.org/2000/svg" xml:space="preserve" viewBox="0 0 512 512"><path d="M230.9 233.1c.1-13.8 11.3-25 25.1-24.9s25 11.3 24.9 25.1-11.3 25-25.1 24.9-24.9-11.3-24.9-25.1m276.7-4.2V50c0-27.6-22.5-50-50.3-50H54.6C26.8 0 4.3 22.4 4.3 50v409.2c0 29.2 22.6 52.9 50.3 52.9h402.7c27.8 0 50.3-23.7 50.3-52.9V266.4h.2v-37.5zM89.4 42.2h240.7l90.1 98v88.7H310.1c.1 1.4.2 2.8.2 4.2 0 30.1-24.4 54.5-54.5 54.5s-54.5-24.4-54.5-54.5c0-1.4 0-2.8.1-4.2h-112zm226.2 259.1q-.15 0 0 0-.15 0 0 0m-7.4 6.3-.1.1s.1 0 .1-.1m-14.4 9c-.1 0-.2.1-.2.1s.1 0 .2-.1m-78.3-1.1c-.1-.1-.2-.1-.3-.2 0 0 .1.1.3.2m-4.2-2.4c-.1 0-.2-.1-.2-.1.1 0 .1.1.2.1m-2-1.3c-.2-.1-.3-.2-.5-.3.2.1.3.2.5.3m-6.1-4.3-.1-.1c0 .1 0 .1.1.1m-1.9-1.5c-.1-.1-.2-.1-.2-.2 0 .1.1.1.2.2m-27.2-39.6c3.3 10.1 8.5 19.4 15.1 27.5l-58.9 83.4c-5-1.5-10.3-2.3-15.8-2.3-1.5 0-3 .1-4.4.2V266.4zm21.7 34.7s-.1 0 0 0c-.1 0 0 0 0 0m-81.3 155.1c-13.8 0-25-11.2-25-25s11.2-25 25-25 25 11.2 25 25-11.2 25-25 25m225.9-13.3h-171q1.2-5.7 1.2-11.7c0-11.4-3.4-22-9.3-30.9l58.4-82.7c10.9 5.1 23.1 7.9 36 7.9 12.7 0 24.8-2.8 35.7-7.7l57.6 81.7c-6.2 9-9.8 20-9.8 31.8 0 3.9.4 7.8 1.2 11.6M217.3 316.4c.2.1.5.2.7.3-.3-.1-.5-.2-.7-.3m178.1 139.8c-13.8 0-25-11.2-25-25s11.2-25 25-25 25 11.2 25 25-11.2 25-25 25m4.5-81c-1.5-.1-3-.2-4.5-.2-5.1 0-10.1.7-14.8 2l-58.5-82.9c6.7-8.1 12-17.5 15.3-27.8h62.4v108.9z" style="fill-rule:evenodd;clip-rule:evenodd;fill:#fff"/></svg>

<?xml version="1.0" encoding="utf-8"?>
<!-- Generator: Adobe Illustrator 28.2.0, SVG Export Plug-In . SVG Version: 6.00 Build 0)  -->
<svg version="1.1" id="Layer_1" xmlns:serif="http://www.serif.com/"
	 xmlns="http://www.w3.org/2000/svg" xmlns:xlink="http://www.w3.org/1999/xlink" x="0px" y="0px" viewBox="0 0 512 512"
	 style="enable-background:new 0 0 512 512;" xml:space="preserve">
<style type="text/css">
	.st0{fill-rule:evenodd;clip-rule:evenodd;fill:#FFFFFF;}
</style>
<path class="st0" d="M230.9,233.1c0.1-13.8,11.3-25,25.1-24.9c13.8,0.1,25,11.3,24.9,25.1c-0.1,13.8-11.3,25-25.1,24.9
	S230.9,246.9,230.9,233.1z M507.6,228.9V50c0-27.6-22.5-50-50.3-50H54.6C26.8,0,4.3,22.4,4.3,50v179l0,0v37.5l0,0v192.7
	c0,29.2,22.6,52.9,50.3,52.9h402.7c27.8,0,50.3-23.7,50.3-52.9V266.4h0.2v-37.5H507.6z M89.4,42.2h240.7l90.1,98v88.7H310.1
	c0.1,1.4,0.2,2.8,0.2,4.2c0,30.1-24.4,54.5-54.5,54.5s-54.5-24.4-54.5-54.5c0-1.4,0-2.8,0.1-4.2h-112L89.4,42.2L89.4,42.2z
	 M315.6,301.3C315.5,301.3,315.5,301.3,315.6,301.3C315.5,301.3,315.5,301.3,315.6,301.3z M308.2,307.6l-0.1,0.1
	C308.1,307.7,308.2,307.7,308.2,307.6z M302.2,311.9L302.2,311.9L302.2,311.9z M300.1,313.2L300.1,313.2L300.1,313.2z M293.8,316.6
	c-0.1,0-0.2,0.1-0.2,0.1C293.6,316.7,293.7,316.7,293.8,316.6z M215.5,315.5c-0.1-0.1-0.2-0.1-0.3-0.2
	C215.2,315.3,215.3,315.4,215.5,315.5z M211.3,313.1c-0.1,0-0.2-0.1-0.2-0.1C211.2,313,211.2,313.1,211.3,313.1z M209.3,311.8
	c-0.2-0.1-0.3-0.2-0.5-0.3C209,311.6,209.1,311.7,209.3,311.8z M203.2,307.5l-0.1-0.1C203.1,307.5,203.1,307.5,203.2,307.5z
	 M201.3,306c-0.1-0.1-0.2-0.1-0.2-0.2C201.1,305.9,201.2,305.9,201.3,306z M174.1,266.4c3.3,10.1,8.5,19.4,15.1,27.5l0,0l-58.9,83.4
	c-5-1.5-10.3-2.3-15.8-2.3c-1.5,0-3,0.1-4.4,0.2V266.4H174.1z M195.8,301.1C195.8,301.1,195.7,301.1,195.8,301.1
	C195.7,301.1,195.8,301.1,195.8,301.1z M114.5,456.2c-13.8,0-25-11.2-25-25s11.2-25,25-25s25,11.2,25,25S128.3,456.2,114.5,456.2z
	 M340.4,442.9h-171c0.8-3.8,1.2-7.7,1.2-11.7c0-11.4-3.4-22-9.3-30.9l58.4-82.7l0,0c10.9,5.1,23.1,7.9,36,7.9
	c12.7,0,24.8-2.8,35.7-7.7l57.6,81.7c-6.2,9-9.8,20-9.8,31.8C339.2,435.2,339.6,439.1,340.4,442.9z M217.3,316.4
	c0.2,0.1,0.5,0.2,0.7,0.3C217.7,316.6,217.5,316.5,217.3,316.4z M395.4,456.2c-13.8,0-25-11.2-25-25s11.2-25,25-25s25,11.2,25,25
	S409.2,456.2,395.4,456.2z M399.9,375.2c-1.5-0.1-3-0.2-4.5-0.2c-5.1,0-10.1,0.7-14.8,2l-58.5-82.9l0,0c6.7-8.1,12-17.5,15.3-27.8
	h62.4v108.9H399.9z"/>
</svg>
